X:1011
T:Baille de Panderu (CT 135)
R:Panderu
C:Tradicional
S:Música Tradicional Asturiana, (C) Tello & Tito. Asturies, 2001.
S:http://pagina.de/MusTradAst <telloytito@asturies.org>
N:Canción de baile de pandero, transcrita en Cenera, ayuntamiento de Mieres.
N:Casi todas las coplas que la cantadora entonaba con esta melodía comenzaban con un verso que hacía referencia al pandero.
O:Cenera (Mieres)
A:Asturies
Z:Cancioneru de Torner 135
M:6/8
L:1/8
Q:3/8=88
W:Esti panderu que toco (bis)
W:tien lengua y sabe falar;
W:sólo-y falten los güeyos
W:pa'ayudame a llorar.
W:
W:Ole, ole, morenita,
W:tien lengua y sabe falar.
W:
W:-------
W:
W:Esti panderu que toco,
W:nel mediu tien un ramu,
W:con un lletreru que diz:
W:¡Viva los que tan baillando!
W:
W:Esti panderu ta rotu,
W:¿con qué lu remendaremos?
W:Cola lengua de los homes,
W:que son unos platiqueros.
K:G
G|GGG F2G|A2A- A2B|cBG A2G|
G2F- F2F|GAA G2F|(A2G- G2)A|AAA G2G|
F2F- F2A|AAA G2F|(A2G- G2)A|AAA G2G|
F2F- F2A|AAA G2F|(A2G- G3-|G2)z3||


